X: 1
T: 'O PAESE D'`O SOLE
C: Musica: V. D'Annibale
C: Versi: Libero bovio
Z: 2011 John Chambers <jc:trillian.mit.edu>
S: printed MS of unknown origin (from Bob Alessio 2011-5-24)
M: 3/4
L: 1/8
K: Gm
(G//A//B//c//)"I"\
|: "Gm"d>d dg (kg^f) | .d>.d .d.c (kcB) | kG>G GG (kG^F) \
| "D"D6 | D2 ^F2 A2 | "Gm"G2 B2 d2 | "Cm"c2 "D"A2 D2 | "Gm"G2 [G4B,4] ||
[| "Gm"d2 dd dd | "A"^c2 A4 | "Dm"zA AB cB | "D7"AB c2 e2 |
w: Og-ge sto tan-to~al-le-ro ca qua-se qua-se, me met-te-se~a
| "Gm"dc B2 G2 | "Cm"BA G2 "D7"^F2 | "Gm"G4 d2 | f2 fe d{f}e | d2 d4 |
w: chia-gne-re pe' sta fe-li-ci-t\`a Ma~\`e~o-ve-ro~o nun \`e o-ve-ro
| "Cm"c2 cd ec | "Gm"dc B3 B | "Cm"cB A2 G2 | "D"[A4^F4] zA |
w: ca so' tur-na-to~a Na-pu-le? Ma~\`e~o-ve-ro ca sto cc\`a? 'O
| "Cm"c3 B AB | c3 B Ac | "Gm"B2 B4 | "A"A2 A=B ^cd |
w: tre-no ste-va~an-co-ra~'int' 'a sta-zi-one quan-no ag-gio 'ntiso~'e
| "D"=e^f e2 f2 | "D"d2 d4- | d6 |]| "G"g2 ^f2 g2 | "D"^f2 d2 f2 | "Am"=e6 | e6 |
w: prim-me man-du-li-ne.*  Chis-t'\`e'o pa-e-se d''o so-le,
| "D"^f2 =e2 f2 | =e2 c2 e2 | "G"d6 | d6 | "Cm"e2 e2 "F7"f2 | "Bb"d2 c2 B2 |
w: chis-t'\`e'o pa-e-se~ad-d\`o ma-re, chis-t'\`e'o pa-e-se~ad-d\`o
| "Cm"c2 d2 e2 | "Gm"(fe) d2 d2 | "Cm"e2 Mg3 ^f | "D"^f_e d4- | d3 z d2 | "Gm"kd2 c2 B2 |
w: tut-t''e pa-ro-*le, s\`o do-ce~o so'a-ma-*re_ s\`o sem-pe pa-
|[1,2 "Dm7"c2 c2 c2 | "Gm"((3ABA) G4- | G2 z3 :|[3 "D7"c2 c2 d2 | "Gm"g2 g4- | g2 k[g2B2] Hz2 |]
w: \-ro-le d'am-mo-**re. | | \-ro-le d'am-mo-re.
